X: 27449
T: Molly Bán
R: reel
M: 4/4
K: Edorian
EBBA B2 AG|FDAD BDAF|EBBA B2 Bc|dBAF BFAF|
EBBA B2 AG|FDAD BDAD|EBBA B2 Bc|1 dBAF BE E2:|2 dBAF E4|
e2Be e2 fe|dBBc d2 Bd|e2 Be e2 fe|dBAF BE E2
e2 Be e2 fe|dBBc d3 e|f3 e defe|1 dBAF BE E2:|2 dBAF E4|

